X: 1407
T: Miss Patterson
M:C|
L:1/8
N:"collected by J. O'Neill"
B:O'Neill's 1407
Z:"Transcribed by Bob Safranek, rjs@gsp.org"
K:Em
B,EA,E B,EGE| FDA,D A,DFD|1 B,EA,E B,EGE|FDB,D E2 E2:|2\
DFAD GBA^c| dBAF E2 E2||
ebgb  f2 eg | fdad  bdad | ebgb  f2 ef | d^cdF E2 E2 |
ebgb  f2 eg | fdad  bdad | GAB^c dcdB  |  AFdF E2 E2 |]


